X: 361
T: Sally Waters
S: Viola Ruth "Pioneer Western Folk Tunes" 1948 p.36 #1
R: march
Z: 2019 John Chambers <jc:trillian.mit.edu>
M: 2/4
L: 1/8
K: D
V: 1 name="102"
[|\
F2 (3(FED) | A3 F | DD (3(DCB,) | A,3 F | GB2G | FA2F | E>F (3(GFE) | A4 |
F2 (3(FED) | A3 F | DD (3(DCB,) | A,3 F | GB2G | FA2F | A,>B, (3(CB,A,) | D4 |]

%%sep 1 1 500

